X: 28820
T: My Otis Tomas Violin
R: reel
M: 4/4
K: Cmajor
GEGc GEAG|ECED ECEB,|EGAc efed|cBdA dGdF|cBce cgce|
cABd BfBd|Bcce cgce|cBdA cBGG|GEGc GEAG|
ECED ECEB,|EGAc efed|cBdA dGdF|cBce cgce|
cABd BfBd|Bcce cgce|cBdA cBGG|AGEC EGce|
gecA cGAd|ggfd ffed|cBcA BG AB|AGEC EGce|
gecA cGAd|ggfd ffed|[cc][BB] cd BcB_B|AGEC EGce|
gecA cGAd|ggfd ffed|cBcA BGAB|AGEC EGce|
gecA cGAd|ggfd ffed|[cc][BB] cdB2<c2|

